Origami/64x64/apps/thermal-monitor.svg

<svg width="64" height="64" version="1" xmlns="http://www.w3.org/2000/svg">
 <g transform="scale(2)" style="fill:#8e8e8e">
  <rect transform="rotate(90)" x="20" y="-29" width="1" height="26"/>
  <rect transform="rotate(90)" x="23" y="-29" width="1" height="26"/>
  <rect transform="rotate(90)" x="26" y="-29" width="1" height="26"/>
  <rect transform="rotate(90)" x="11" y="-29" width="1" height="26"/>
  <rect transform="rotate(90)" x="14" y="-29" width="1" height="26"/>
  <rect transform="rotate(90)" x="17" y="-29" width="1" height="26"/>
  <rect transform="rotate(90)" x="8" y="-29" width="1" height="26"/>
  <rect transform="rotate(90)" x="5" y="-29" width="1" height="26"/>
 </g>
 <g transform="matrix(0,2,-2,0,64,0)" style="fill:#8e8e8e">
  <rect transform="rotate(90)" x="20" y="-29" width="1" height="26"/>
  <rect transform="rotate(90)" x="23" y="-29" width="1" height="26"/>
  <rect transform="rotate(90)" x="26" y="-29" width="1" height="26"/>
  <rect transform="rotate(90)" x="11" y="-29" width="1" height="26"/>
  <rect transform="rotate(90)" x="14" y="-29" width="1" height="26"/>
  <rect transform="rotate(90)" x="17" y="-29" width="1" height="26"/>
  <rect transform="rotate(90)" x="8" y="-29" width="1" height="26"/>
  <rect transform="rotate(90)" x="5" y="-29" width="1" height="26"/>
 </g>
 <path d="m8 52.602v2c0 1.33 1.338 2.398 3 2.398h42c1.662 0 3-1.068 3-2.398v-2c0 1.33-1.338 2.398-3 2.398h-42c-1.662 0-3-1.068-3-2.398z" style="opacity:.2"/>
 <rect transform="matrix(0,-1,-1,0,0,0)" x="-56" y="-56" width="48" height="48" rx="2.4" ry="3" style="fill:#b7b7b7"/>
 <path d="m11 8c-1.662 0-3 1.0688375-3 2.398438v1c0-1.329601 1.338-2.398438 3-2.398438h42c1.662 0 3 1.068838 3 2.398438v-1c0-1.3296005-1.338-2.398438-3-2.398438h-42z" style="fill:#ffffff;opacity:.2"/>
 <path d="m32 13c-2.77 0-5 2.23-5 5v14.355469a10 10 0 0 0 -5 8.644531 10 10 0 0 0 10 10 10 10 0 0 0 10 -10 10 10 0 0 0 -5 -8.650391v-14.349609c0-2.77-2.23-5-5-5zm0 3c1.159892 0 2 0.840108 2 2v16.082031l1.5 0.865235c2.167254 1.251263 3.49684 3.552265 3.5 6.054687-0.001062 3.900583-3.099142 6.998047-7 6.998047-3.90019 0-6.997877-3.096455-7-6.996094v-0.001953c0.0046-2.500942 1.334025-4.798306 3.5-6.048828l1.5-0.865234v-16.087891c0-1.159892 0.840108-2 2-2z" style="opacity:.5"/>
 <path d="m30 26v9.087891l-1.5 0.865234c-2.165975 1.250522-3.4954 3.547886-3.5 6.048828v2e-3c0.002123 3.899592 3.09981 6.996047 7 6.996047 3.900858 0 6.998938-3.097464 7-6.998047-0.0032-2.502422-1.332746-4.803424-3.5-6.054687l-1.5-0.865235v-9.082031z" style="opacity:.2"/>
 <path d="m30 25v9.087891l-1.5 0.865234c-2.165975 1.250522-3.4954 3.547886-3.5 6.048828v2e-3c0.002123 3.899592 3.09981 6.996047 7 6.996047 3.900858 0 6.998938-3.097464 7-6.998047-0.0032-2.502422-1.332746-4.803424-3.5-6.054687l-1.5-0.865235v-9.082031z" style="fill:#f75f5f"/>
</svg>

<svg xmlns="http://www.w3.org/2000/svg" width="64" height="64" version="1">
 <g style="fill:#8e8e8e" transform="scale(2,2)">
  <rect width="1" height="26" x="20" y="-29" transform="matrix(0,1,-1,0,0,0)"/>
  <rect width="1" height="26" x="23" y="-29" transform="matrix(0,1,-1,0,0,0)"/>
  <rect width="1" height="26" x="26" y="-29" transform="matrix(0,1,-1,0,0,0)"/>
  <rect width="1" height="26" x="11" y="-29" transform="matrix(0,1,-1,0,0,0)"/>
  <rect width="1" height="26" x="14" y="-29" transform="matrix(0,1,-1,0,0,0)"/>
  <rect width="1" height="26" x="17" y="-29" transform="matrix(0,1,-1,0,0,0)"/>
  <rect width="1" height="26" x="8" y="-29" transform="matrix(0,1,-1,0,0,0)"/>
  <rect width="1" height="26" x="5" y="-29" transform="matrix(0,1,-1,0,0,0)"/>
 </g>
 <g style="fill:#8e8e8e" transform="matrix(0,2,-2,0,64,0)">
  <rect width="1" height="26" x="20" y="-29" transform="matrix(0,1,-1,0,0,0)"/>
  <rect width="1" height="26" x="23" y="-29" transform="matrix(0,1,-1,0,0,0)"/>
  <rect width="1" height="26" x="26" y="-29" transform="matrix(0,1,-1,0,0,0)"/>
  <rect width="1" height="26" x="11" y="-29" transform="matrix(0,1,-1,0,0,0)"/>
  <rect width="1" height="26" x="14" y="-29" transform="matrix(0,1,-1,0,0,0)"/>
  <rect width="1" height="26" x="17" y="-29" transform="matrix(0,1,-1,0,0,0)"/>
  <rect width="1" height="26" x="8" y="-29" transform="matrix(0,1,-1,0,0,0)"/>
  <rect width="1" height="26" x="5" y="-29" transform="matrix(0,1,-1,0,0,0)"/>
 </g>
 <path style="opacity:0.2" d="m 8,52.602 0,2 C 8,55.932 9.338,57 11,57 l 42,0 c 1.662,0 3,-1.068 3,-2.398 l 0,-2 C 56,53.932 54.662,55 53,55 L 11,55 C 9.338,55 8,53.932 8,52.602 Z"/>
 <rect style="fill:#b7b7b7" width="48" height="48" x="-56" y="-56" rx="2.4" ry="3" transform="matrix(0,-1,-1,0,0,0)"/>
 <path style="opacity:0.2;fill:#ffffff" d="M 11 8 C 9.338 8 8 9.0688375 8 10.398438 L 8 11.398438 C 8 10.068837 9.338 9 11 9 L 53 9 C 54.662 9 56 10.068838 56 11.398438 L 56 10.398438 C 56 9.0688375 54.662 8 53 8 L 11 8 z"/>
 <path style="opacity:0.5" d="M 32 13 C 29.23 13 27 15.23 27 18 L 27 32.355469 A 10 10 0 0 0 22 41 A 10 10 0 0 0 32 51 A 10 10 0 0 0 42 41 A 10 10 0 0 0 37 32.349609 L 37 18 C 37 15.23 34.77 13 32 13 z M 32 16 C 33.159892 16 34 16.840108 34 18 L 34 34.082031 L 35.5 34.947266 C 37.667254 36.198529 38.99684 38.499531 39 41.001953 C 38.998938 44.902536 35.900858 48 32 48 C 28.09981 48 25.002123 44.903545 25 41.003906 L 25 41.001953 C 25.0046 38.501011 26.334025 36.203647 28.5 34.953125 L 30 34.087891 L 30 18 C 30 16.840108 30.840108 16 32 16 z"/>
 <path style="opacity:0.2" d="m 30,26 v 9.087891 l -1.5,0.865234 c -2.165975,1.250522 -3.4954,3.547886 -3.5,6.048828 v 0.002 C 25.002123,45.903545 28.09981,49 32,49 c 3.900858,0 6.998938,-3.097464 7,-6.998047 -0.0032,-2.502422 -1.332746,-4.803424 -3.5,-6.054687 L 34,35.082031 V 26 Z"/>
 <path style="fill:#f75f5f" d="m 30,25 v 9.087891 l -1.5,0.865234 c -2.165975,1.250522 -3.4954,3.547886 -3.5,6.048828 v 0.002 C 25.002123,44.903545 28.09981,48 32,48 c 3.900858,0 6.998938,-3.097464 7,-6.998047 -0.0032,-2.502422 -1.332746,-4.803424 -3.5,-6.054687 L 34,34.082031 V 25 Z"/>
</svg>
